!!!OTL: Eleisonlied Maria, die ging spazieren - Kyrieeleison.
!!!ARE: Europa, Mitteleuropa, Lothringen, Weiler
!!!SCT: D0029A
!!!YEM: Copyright 1995, estate of Helmut Schaffrath.
**kern
*ICvox
*Ivox
!! Irregular meter.
*MX
*k[b-e-]
*g:
{8cc
8cc
8cc
=1
4.gg
8ffn
8dd
=2
8ee-
8dd
4cc}
=3
{8dd
=4
4gg
8ffn
8gg
4dd
8r}
{8dd
16.dd
32dd
16.dd
32dd
=5
4gg
8ffn
4ee-
8cc
!*M3/4
=6
4b-}
{12cc
12dd
12ee-
=7
4dd
8g
8cc
!*M2/4
=8
16b-
16a
4g}
==
!!!AGN: Legenden - Lied
!! Taktart veraendert ( siehe Lied D0029) ; Variante zu Lied D0029
!!!ONB: ESAC (Essen Associative Code) Database: DVA
!!!AMT: irregular
!!!AIN: vox
!!!EED: Helmut Schaffrath
!!!EEV: 1.0
*-
